lib/brands/logos/red-hat.svg

<svg xmlns="http://www.w3.org/2000/svg" fill="none" aria-hidden="true" viewBox="0 0 211 56"><g id="Red Hat"><g id="Group"><g id="Group_2"><path id="Vector" fill="#EE0000" d="M48.4975 31.0224C52.4824 31.0224 58.2479 30.2006 58.2479 25.4608C58.2598 25.0949 58.2267 24.7291 58.1492 24.3714L55.7761 14.0634C55.2282 11.7954 54.7472 10.7666 50.7655 8.7757C47.6756 7.19575 40.9449 4.58691 38.954 4.58691C37.1001 4.58691 36.5618 6.97595 34.3512 6.97595C32.2233 6.97595 30.6434 5.19214 28.6525 5.19214C26.7413 5.19214 25.4958 6.49496 24.5338 9.17387C24.5338 9.17387 21.8549 16.7296 21.5109 17.8254C21.4562 18.0266 21.4326 18.235 21.4408 18.4433C21.4408 21.3803 33.0037 31.0097 48.4975 31.0097V31.0224ZM58.8595 27.3847C59.4106 29.9936 59.4106 30.2675 59.4106 30.6115C59.4106 35.0711 54.3968 37.5461 47.8062 37.5461C32.9114 37.5557 19.864 28.8277 19.864 23.059C19.8632 22.256 20.0269 21.4613 20.345 20.7241C14.9872 20.9917 8.05261 21.9473 8.05261 28.0696C8.05261 38.0972 31.8124 50.4565 50.6253 50.4565C65.0487 50.4565 68.6864 43.9328 68.6864 38.782C68.6864 34.7302 65.1825 30.1305 58.8659 27.3847"/><path id="Vector_2" fill="black" d="M58.8595 27.3847C59.4106 29.9936 59.4106 30.2675 59.4106 30.6115C59.4106 35.0711 54.3968 37.5461 47.8062 37.5461C32.9114 37.5557 19.864 28.8277 19.864 23.059C19.8632 22.256 20.0269 21.4614 20.345 20.7241L21.5109 17.8381C21.4575 18.0353 21.4338 18.2393 21.4408 18.4434C21.4408 21.3803 33.0037 31.0097 48.4975 31.0097C52.4824 31.0097 58.2479 30.1879 58.2479 25.448C58.2598 25.0822 58.2267 24.7163 58.1492 24.3586L58.8595 27.3847Z"/></g><path id="Vector_3" fill="black" d="M192.563 33.9879C192.563 37.7753 194.84 39.6164 198.994 39.6164C200.273 39.5846 201.544 39.405 202.782 39.0813V34.6886C201.991 34.9393 201.165 35.064 200.335 35.0581C198.625 35.0581 197.991 34.523 197.991 32.9144V26.1837H202.947V21.6604H197.991V15.9267L192.576 17.0989V21.6604H188.979V26.1837H192.563V33.9879ZM175.68 34.0898C175.68 32.9176 176.856 32.3474 178.63 32.3474C179.715 32.3537 180.794 32.4884 181.847 32.7487V35.0263C180.81 35.593 179.643 35.8816 178.461 35.8641C176.722 35.8641 175.68 35.1951 175.68 34.0898ZM177.337 39.6833C179.248 39.6833 180.79 39.282 182.229 38.3104V39.3839H187.587V28.0248C187.587 23.7054 184.676 21.3355 179.818 21.3355C177.104 21.3355 174.422 21.9726 171.536 23.2786L173.479 27.2667C175.556 26.3939 177.302 25.8587 178.84 25.8587C181.07 25.8587 182.223 26.7284 182.223 28.5058V29.3754C180.91 29.0356 179.559 28.8664 178.203 28.8721C173.645 28.8721 170.899 30.7834 170.899 34.2013C170.899 37.3166 173.377 39.6929 177.33 39.6929L177.337 39.6833ZM147.885 39.3935H153.647V30.2036H163.296V39.3839H169.074V15.9331H163.318V24.9445H153.669V15.9331H147.907L147.885 39.3935ZM125.95 30.5062C125.95 27.9579 127.96 26.0148 130.607 26.0148C131.984 25.9869 133.322 26.4782 134.353 27.3909V33.5865C133.344 34.5403 131.995 35.0517 130.607 35.0072C127.995 35.0072 125.95 33.0641 125.95 30.519V30.5062ZM134.426 39.3966H139.787V14.7609L134.372 15.9331V22.6001C132.994 21.8186 131.434 21.4143 129.849 21.4279C124.692 21.4279 120.637 25.4128 120.637 30.5062C120.607 32.9204 121.548 35.2453 123.25 36.9585C124.951 38.6717 127.269 39.6294 129.683 39.6166C131.392 39.6246 133.059 39.0854 134.439 38.0779L134.426 39.3966ZM109.826 25.7696C111.533 25.7696 112.973 26.8749 113.543 28.5823H106.153C106.688 26.8207 108.029 25.7696 109.826 25.7696ZM100.693 30.5476C100.693 35.708 104.914 39.7279 110.339 39.7279C113.32 39.7279 115.499 38.922 117.745 37.0458L114.158 33.8604C113.32 34.7332 112.081 35.2015 110.609 35.2015C108.715 35.2548 106.983 34.137 106.252 32.3888H118.882V31.0414C118.882 25.4128 115.098 21.361 109.937 21.361C107.487 21.324 105.125 22.277 103.386 24.0044C101.647 25.7317 100.679 28.0873 100.7 30.5381L100.693 30.5476ZM91.3504 20.8577C93.2617 20.8577 94.332 22.0618 94.332 23.5048C94.332 24.9477 93.2617 26.1518 91.3504 26.1518H85.6518V20.8577H91.3504ZM79.8831 39.3839H85.6454V30.8407H90.0317L94.4562 39.3839H100.907L95.7463 30.0029C98.4292 28.9118 100.179 26.2992 100.168 23.4028C100.168 19.1822 96.8516 15.9331 91.8856 15.9331H79.8831V39.3839Z"/></g></g></svg>

<svg xmlns="http://www.w3.org/2000/svg" fill="none" aria-hidden="true" viewBox="0 0 211 56"><path fill="#E00" d="M48.498 31.022c3.984 0 9.75-.821 9.75-5.561a4.46 4.46 0 0 0-.099-1.09l-2.373-10.308c-.548-2.268-1.029-3.296-5.01-5.287-3.09-1.58-9.821-4.19-11.812-4.19-1.854 0-2.392 2.39-4.603 2.39-2.128 0-3.708-1.784-5.698-1.784-1.912 0-3.157 1.303-4.12 3.982 0 0-2.678 7.556-3.022 8.651a2.05 2.05 0 0 0-.07.618c0 2.937 11.563 12.567 27.057 12.567v.012Zm10.361-3.637c.552 2.609.552 2.882.552 3.226 0 4.46-5.014 6.935-11.605 6.935-14.895.01-27.942-8.718-27.942-14.487 0-.803.163-1.598.481-2.335-5.358.268-12.292 1.223-12.292 7.346 0 10.027 23.76 22.386 42.572 22.386 14.424 0 18.061-6.523 18.061-11.674 0-4.052-3.504-8.651-9.82-11.397"/><path fill="#000" d="M58.86 27.385c.55 2.609.55 2.882.55 3.226 0 4.46-5.013 6.935-11.604 6.935-14.895.01-27.942-8.718-27.942-14.487 0-.803.163-1.598.481-2.335l1.166-2.886a2.047 2.047 0 0 0-.07.605c0 2.937 11.563 12.567 27.057 12.567 3.984 0 9.75-.822 9.75-5.562a4.46 4.46 0 0 0-.099-1.09l.71 3.027Zm133.703 6.603c0 3.787 2.277 5.628 6.431 5.628a16.605 16.605 0 0 0 3.788-.535V34.69a7.914 7.914 0 0 1-2.447.37c-1.71 0-2.344-.536-2.344-2.145v-6.73h4.956V21.66h-4.956v-5.733l-5.415 1.172v4.561h-3.597v4.524h3.584v7.804Zm-16.883.102c0-1.172 1.176-1.743 2.95-1.743 1.085.007 2.164.141 3.217.402v2.277a6.85 6.85 0 0 1-3.386.838c-1.739 0-2.781-.669-2.781-1.774Zm1.657 5.593c1.911 0 3.453-.401 4.892-1.373v1.074h5.358v-11.36c0-4.319-2.911-6.689-7.769-6.689-2.714 0-5.396.638-8.282 1.944l1.943 3.988c2.077-.873 3.823-1.408 5.361-1.408 2.23 0 3.383.87 3.383 2.647v.87a15.78 15.78 0 0 0-4.02-.504c-4.558 0-7.304 1.911-7.304 5.33 0 3.115 2.478 5.49 6.431 5.49l.007-.009Zm-29.452-.29h5.762v-9.19h9.649v9.18h5.778v-23.45h-5.756v9.012h-9.649v-9.012h-5.762l-.022 23.46Zm-21.935-8.887c0-2.548 2.01-4.491 4.657-4.491a5.485 5.485 0 0 1 3.746 1.376v6.196a5.21 5.21 0 0 1-3.746 1.42c-2.612 0-4.657-1.943-4.657-4.488v-.013Zm8.476 8.89h5.361V14.762l-5.415 1.172V22.6a9.011 9.011 0 0 0-4.523-1.172c-5.157 0-9.212 3.985-9.212 9.078a8.995 8.995 0 0 0 9.046 9.11 8.003 8.003 0 0 0 4.756-1.538l-.013 1.319Zm-24.6-13.626c1.707 0 3.147 1.105 3.717 2.812h-7.39c.535-1.761 1.876-2.812 3.673-2.812Zm-9.133 4.778c0 5.16 4.221 9.18 9.646 9.18 2.981 0 5.16-.806 7.406-2.682l-3.587-3.186c-.838.873-2.077 1.342-3.549 1.342a4.583 4.583 0 0 1-4.357-2.813h12.63V31.04c0-5.628-3.784-9.68-8.945-9.68a9.101 9.101 0 0 0-9.237 9.177l-.007.01Zm-9.343-9.69c1.912 0 2.982 1.204 2.982 2.647 0 1.443-1.07 2.647-2.982 2.647h-5.698v-5.294h5.698ZM79.883 39.384h5.762V30.84h4.387l4.424 8.543h6.451l-5.16-9.381a7.095 7.095 0 0 0 4.421-6.6c0-4.22-3.316-7.47-8.282-7.47H79.883v23.45Z"/></svg>
